source/images/glyphs/chat-circle.svg

<svg width="19px" height="19px" viewBox="1 39 19 19" version="1.1" xmlns="http://www.w3.org/2000/svg" xmlns:xlink="http://www.w3.org/1999/xlink">
    <!-- Generator: Sketch 42 (36781) - http://www.bohemiancoding.com/sketch -->
    <desc>Created with Sketch.</desc>
    <defs></defs>
    <path d="M15.1579823,49.973382 C14.6797961,50.5739508 14.0262409,51.0491038 13.1993561,51.3968015 C12.3724712,51.7465386 11.472176,51.9198776 10.4994902,51.9198776 C10.0610679,51.9198776 9.61448887,51.8801116 9.15567481,51.7985403 C8.52455058,52.2461629 7.81695734,52.5724482 7.03289509,52.7753569 C6.85038905,52.8212407 6.63117789,52.8620264 6.37628119,52.8987335 L6.35283069,52.8987335 C6.29777301,52.8987335 6.24475449,52.877321 6.19683391,52.8365354 C6.14789375,52.7957497 6.11934532,52.7427283 6.10914945,52.6764516 C6.10405152,52.661157 6.10099276,52.6448428 6.10099276,52.6275089 C6.10099276,52.6091553 6.10303193,52.5918214 6.1050711,52.5775464 C6.10812986,52.5612322 6.11220821,52.5469572 6.1203649,52.5316626 L6.13973705,52.4929162 C6.13973705,52.4929162 6.14789375,52.4786412 6.16624631,52.4511109 C6.18459887,52.4225609 6.19377515,52.4103252 6.19377515,52.4103252 C6.19377515,52.4103252 6.21110813,52.4031877 6.23048028,52.3746378 C6.2518916,52.3471074 6.26106788,52.3348717 6.26106788,52.3348717 C6.28655755,52.3093807 6.34569359,52.2461629 6.4374564,52.1503166 C6.52921921,52.052431 6.59549235,51.9779972 6.63627583,51.9239562 C6.6770593,51.8709349 6.73415616,51.7975207 6.80756641,51.702694 C6.88097666,51.608887 6.94521063,51.5099818 6.99822914,51.4090372 C7.05226724,51.3070731 7.10426617,51.1949125 7.15524551,51.0735752 C6.52412128,50.7065042 6.02758251,50.2558227 5.66562919,49.7215305 C5.30469547,49.1862187 5.12320902,48.6162391 5.12320902,48.0105721 C5.12320902,47.3029409 5.3638315,46.6493506 5.84099812,46.0487818 C6.32020392,45.4471933 6.97273947,44.97306 7.80064395,44.6243426 C8.62752884,44.2756252 9.52782399,44.1012665 10.4994902,44.1012665 C11.472176,44.1012665 12.3724712,44.2756252 13.1993561,44.6243426 C14.0262409,44.97306 14.6797961,45.4471933 15.1579823,46.0487818 C15.6361685,46.6493506 15.8757714,47.3029409 15.8757714,48.0105721 C15.8757714,48.7192229 15.6361685,49.3728131 15.1579823,49.973382 M10.4994902,39 C5.25371613,39 1,43.2529248 1,48.5 C1,53.7460556 5.25371613,58 10.4994902,58 C15.7462839,58 20,53.7460556 20,48.5 C20,43.2529248 15.7462839,39 10.4994902,39" id="Chat-Icon" stroke="none" fill="#FFFFFF" fill-rule="evenodd"></path>
</svg>

<svg width="19" height="19" viewBox="1 39 19 19" xmlns="http://www.w3.org/2000/svg">
    <path d="M15.158 49.973c-.478.6-1.132 1.076-1.96 1.424-.826.35-1.726.523-2.7.523a7.79 7.79 0 0 1-1.342-.12c-.63.446-1.34.772-2.123.975a6.677 6.677 0 0 1-.657.124h-.023a.252.252 0 0 1-.156-.068.242.242 0 0 1-.088-.16c-.01-.016-.01-.032-.01-.05v-.05a.15.15 0 0 1 .015-.045l.02-.04.025-.04.03-.04s.017-.01.036-.037l.03-.04.176-.184c.092-.1.158-.174.2-.228l.17-.22c.074-.095.138-.194.19-.295.055-.103.107-.215.158-.336-.63-.367-1.125-.818-1.49-1.35-.36-.538-.54-1.108-.54-1.71 0-.71.24-1.365.718-1.965.48-.603 1.133-1.077 1.96-1.426a6.898 6.898 0 0 1 2.7-.523c.972 0 1.872.176 2.7.524.826.35 1.48.824 1.958 1.426.478.6.718 1.253.718 1.96 0 .71-.24 1.363-.718 1.963M10.498 39C5.255 39 1 43.253 1 48.5c0 5.246 4.254 9.5 9.5 9.5s9.5-4.254 9.5-9.5a9.5 9.5 0 0 0-9.5-9.5" fill="#FFF" fill-rule="evenodd"/>
</svg>
